%
(SnakeControllerCasev5)
(T1  D=0.125 CR=0 - ZMIN=0 - flat end mill)
G90 G94
G17
G20
G28 G91 Z0
G90

(2D Pocket4)
M9

S16500 M3
G54
M9
G0 X0.9315 Y1.824
Z1.1
Z0.7
G1 Z0.6644 F40
Z0.3875
G18 G3 X0.919 Z0.375 I-0.0125
G1 X0.9177
X0.8157
G17 G3 X0.7806 Y1.8095 J-0.0497
G1 X0.6905 Y1.7195
G3 X0.676 Y1.6843 I0.0352 J-0.0352
G1 Y1.5846
Y0.915
Y0.8157
G3 X0.6905 Y0.7805 I0.0497
G1 X0.7805 Y0.6905
G3 X0.8157 Y0.676 I0.0352 J0.0352
G1 X0.9175
X1.583
X1.6843
G3 X1.7195 Y0.6905 J0.0497
G1 X1.8095 Y0.7806
G3 X1.824 Y0.8157 I-0.0352 J0.0352
G1 Y0.8363
Y1.6639
Y1.6843
G3 X1.8095 Y1.7194 I-0.0497
G1 X1.7194 Y1.8095
G3 X1.6843 Y1.824 I-0.0352 J-0.0352
G1 X1.5832
G3 X1.5811 Y1.7671 J-0.0285
G1 X1.6788 Y1.7598
G2 X1.6956 Y1.7526 I-0.0021 J-0.0285
G1 X1.7955 Y1.6639
G3 X1.8081 Y1.6574 I0.0189 J0.0213
G1 X1.9015 Y1.6362
G3 X1.9364 Y1.6641 I0.0063 J0.0278
G1 Y1.7221
G3 X1.9157 Y1.7721 I-0.0707
G1 X1.7721 Y1.9157
G3 X1.7221 Y1.9364 I-0.05 J-0.05
G1 X0.7779
G3 X0.7279 Y1.9157 J-0.0707
G1 X0.5843 Y1.7721
G3 X0.5636 Y1.7221 I0.05 J-0.05
G1 Y0.7779
G3 X0.5843 Y0.7279 I0.0707
G1 X0.7279 Y0.5843
G3 X0.7779 Y0.5636 I0.05 J0.05
G1 X1.7221
G3 X1.7721 Y0.5843 J0.0707
G1 X1.9157 Y0.7279
G3 X1.9364 Y0.7779 I-0.05 J0.05
G1 Y0.8363
X2.0531 Y1.6641
Y1.7221
G3 X1.9982 Y1.8547 I-0.1875
G1 X1.8547 Y1.9982
G3 X1.7221 Y2.0531 I-0.1326 J-0.1326
G1 X0.7779
G3 X0.6453 Y1.9982 J-0.1875
G1 X0.5018 Y1.8547
G3 X0.4469 Y1.7221 I0.1326 J-0.1326
G1 Y0.7779
G3 X0.5018 Y0.6453 I0.1875
G1 X0.6453 Y0.5018
G3 X0.7779 Y0.4469 I0.1326 J0.1326
G1 X1.7221
G3 X1.8547 Y0.5018 J0.1875
G1 X1.9982 Y0.6453
G3 X2.0531 Y0.7779 I-0.1326 J0.1326
G1 Y0.8363
G3 X2.053 Y0.8383 I-0.0125
G1 X2.0432 Y0.9
X2.0428 Y0.9028 Z0.3753
X2.0423 Y0.9054 Z0.3762
X2.042 Y0.9077 Z0.3777
X2.0417 Y0.9097 Z0.3797
X2.0414 Y0.9111 Z0.3821
X2.0413 Y0.912 Z0.3847
X2.0412 Y0.9124 Z0.3875
G0 Z1.1

(2D Pocket5)
M9
X1.6415 Y0.9406
Z1.1
Z0.7
G1 Z0.3875 F40
G18 G2 X1.654 Z0.375 I0.0125
G1 X1.8369
X1.9401
G17 G3 X1.9529 Y0.9534 J0.0128
G1 Y1.5466
G3 X1.9401 Y1.5594 I-0.0128
G1 X1.837
G3 X1.829 Y1.5521 J-0.008
G1 X1.7641 Y0.8491
G3 X1.7721 Y0.8404 I0.008 J-0.0007
G1 X2.0531
Y1.6596
X1.7982
X1.7721
G3 X1.7641 Y1.6512 J-0.008
G1 X1.8035 Y0.9482
G3 X1.8114 Y0.9406 I0.008 J0.0004
G18 G3 X1.8239 Z0.3625 K-0.0125
G1 Z0.325
G2 X1.8364 Z0.3125 I0.0125
G1 X1.8369
X1.9401
G17 G3 X1.9529 Y0.9534 J0.0128
G1 Y1.5466
G3 X1.9401 Y1.5594 I-0.0128
G1 X1.837
G3 X1.829 Y1.5521 J-0.008
G1 X1.7641 Y0.8491
G3 X1.7721 Y0.8404 I0.008 J-0.0007
G1 X2.0531
Y1.6596
X1.7982
X1.7721
G3 X1.7702 Y1.6595 J-0.0125
G1 X1.7084 Y1.6497
X1.7057 Y1.6492 Z0.3128
X1.7031 Y1.6488 Z0.3137
X1.7007 Y1.6485 Z0.3152
X1.6988 Y1.6482 Z0.3172
X1.6973 Y1.6479 Z0.3196
X1.6964 Y1.6478 Z0.3222
X1.6961 Y1.6477 Z0.325
G0 Z1.1

(2D Pocket6)
M9
X1.5355 Y1.3833
Z1.1
Z0.7
G1 Z0.6644 F40
Z0.3875
X1.5353 Y1.3836 Z0.3847
X1.5349 Y1.3844 Z0.3821
X1.5342 Y1.3857 Z0.3797
X1.5333 Y1.3875 Z0.3777
X1.5322 Y1.3896 Z0.3762
X1.531 Y1.3919 Z0.3753
X1.5297 Y1.3944 Z0.375
X1.5291 Y1.3955
G3 X1.3956 Y1.5291 I-0.2791 J-0.1455
X1.3654 Y1.4804 I-0.0133 J-0.0254
G1 X1.432 Y1.432
X1.5037 Y1.3822
G3 X1.5148 Y1.3776 I0.0164 J0.0236
G1 X1.6218 Y1.3576
G3 X1.6541 Y1.3956 I0.0053 J0.0282
X1.3958 Y1.654 I-0.4041 J-0.1456
X1.3898 Y1.6538 I-0.0027 J-0.0075
G1 X1.1046 Y1.5291
G3 X0.9711 Y1.3958 I0.1454 J-0.2791
X1.0197 Y1.3656 I0.0254 J-0.0133
G1 X1.0681 Y1.4321
X1.1178 Y1.5037
G3 X1.1225 Y1.5148 I-0.0236 J0.0164
G1 X1.1426 Y1.6219
G3 X1.1046 Y1.6542 I-0.0282 J0.0053
X0.846 Y1.3958 I0.1454 J-0.4042
X0.8462 Y1.3898 I0.0075 J-0.0027
G1 X0.971 Y1.1042
G3 X1.1047 Y0.9708 I0.279 J0.1458
X1.1084 Y0.9699 I0.0037 J0.0071
G1 X1.392 Y0.9701
G3 X1.3957 Y0.971 J0.008
X1.5292 Y1.1047 I-0.1457 J0.279
X1.5257 Y1.1155 I-0.0071 J0.0037
X1.515 Y1.112 I-0.0037 J-0.0071
G1 X1.3857 Y0.8571
G3 X1.3956 Y0.8459 I0.0071 J-0.0036
X1.654 Y1.1042 I-0.1456 J0.4041
X1.6465 Y1.1149 I-0.0075 J0.0027
G1 X0.8534 Y1.1153
G3 X0.8458 Y1.1046 J-0.008
X1.1044 Y0.8459 I0.4042 J0.1454
G2 X1.1636 Y0.7708 I-0.0306 J-0.085
G3 X1.2339 Y0.706 I0.0724 J0.008
X1.2661 Y1.794 I0.0161 J0.544
X1.2339 Y0.706 I-0.0161 J-0.544
G2 X1.3158 Y0.651 I-0.0027 J-0.0924
G3 X1.4042 Y0.6072 I0.0704 J0.0312
X1.0958 Y1.8928 I-0.1542 J0.6428
X1.4042 Y0.6072 I0.1542 J-0.6428
X1.4103 Y0.616 I-0.0019 J0.0078
G1 X1.3685 Y0.9509
G2 X1.3727 Y0.959 I0.0079 J0.001
G1 X1.3752 Y0.9603 Z0.3747
X1.3775 Y0.9615 Z0.3738
X1.3796 Y0.9626 Z0.3723
X1.3814 Y0.9635 Z0.3703
X1.3827 Y0.9642 Z0.3679
X1.3835 Y0.9646 Z0.3653
X1.3838 Y0.9648 Z0.3625
Z0.2625
X1.3841 Y0.9649 Z0.2597
X1.3849 Y0.9654 Z0.2571
X1.3862 Y0.966 Z0.2547
X1.388 Y0.967 Z0.2527
X1.3901 Y0.9681 Z0.2512
X1.3924 Y0.9693 Z0.2503
X1.3949 Y0.9706 Z0.25
X1.3957 Y0.971
G3 X1.5292 Y1.1047 I-0.1457 J0.279
X1.5301 Y1.1084 I-0.0071 J0.0037
G1 X1.53 Y1.3918
G3 X1.5291 Y1.3955 I-0.008
X1.3956 Y1.5291 I-0.2791 J-0.1455
X1.3654 Y1.4804 I-0.0133 J-0.0254
G1 X1.432 Y1.432
X1.5037 Y1.3822
G3 X1.5148 Y1.3776 I0.0164 J0.0236
G1 X1.6218 Y1.3576
G3 X1.6541 Y1.3956 I0.0053 J0.0282
X1.3958 Y1.654 I-0.4041 J-0.1456
X1.3898 Y1.6538 I-0.0027 J-0.0075
G1 X1.1046 Y1.5291
G3 X0.9711 Y1.3958 I0.1454 J-0.2791
X1.0197 Y1.3656 I0.0254 J-0.0133
G1 X1.0681 Y1.4321
X1.1178 Y1.5037
G3 X1.1225 Y1.5148 I-0.0236 J0.0164
G1 X1.1426 Y1.6219
G3 X1.1046 Y1.6542 I-0.0282 J0.0053
X0.846 Y1.3958 I0.1454 J-0.4042
X0.8462 Y1.3898 I0.0075 J-0.0027
G1 X0.971 Y1.1042
G3 X1.1047 Y0.9708 I0.279 J0.1458
X1.1156 Y0.9742 I0.0037 J0.0071
X1.1121 Y0.985 I-0.0071 J0.0037
G1 X0.857 Y1.1145
G3 X0.8458 Y1.1046 I-0.0036 J-0.0071
X1.1044 Y0.8459 I0.4042 J0.1454
X1.1071 Y0.8454 I0.0027 J0.0075
G1 X1.3928
G3 X1.3956 Y0.8459 J0.008
X1.654 Y1.1042 I-0.1456 J0.4041
G2 X1.7291 Y1.1634 I0.085 J-0.0307
G3 X1.794 Y1.2337 I-0.008 J0.0725
X0.706 Y1.2663 I-0.544 J0.0163
X1.794 Y1.2337 I0.544 J-0.0163
G2 X1.8491 Y1.3155 I0.0924 J-0.0028
G3 X1.8928 Y1.4039 I-0.0311 J0.0704
X0.6072 Y1.0961 I-0.6428 J-0.1539
X1.8928 Y1.4039 I0.6428 J0.1539
X1.8841 Y1.4099 I-0.0078 J-0.0019
G1 X1.549 Y1.3687
G2 X1.5409 Y1.3729 I-0.001 J0.0079
G1 X1.5396 Y1.3754 Z0.2497
X1.5384 Y1.3777 Z0.2488
X1.5373 Y1.3798 Z0.2473
X1.5364 Y1.3816 Z0.2453
X1.5357 Y1.3829 Z0.2429
X1.5353 Y1.3837 Z0.2403
X1.5351 Y1.384 Z0.2375
Z0.1375
X1.535 Y1.3843 Z0.1347
X1.5345 Y1.3851 Z0.1321
X1.5338 Y1.3864 Z0.1297
X1.5329 Y1.3882 Z0.1277
X1.5318 Y1.3903 Z0.1262
X1.5306 Y1.3926 Z0.1253
X1.5293 Y1.3951 Z0.125
X1.5291 Y1.3955
G3 X1.3956 Y1.5291 I-0.2791 J-0.1455
X1.3654 Y1.4804 I-0.0133 J-0.0254
G1 X1.432 Y1.432
X1.5037 Y1.3822
G3 X1.5148 Y1.3776 I0.0164 J0.0236
G1 X1.6218 Y1.3576
G3 X1.6541 Y1.3956 I0.0053 J0.0282
X1.3958 Y1.654 I-0.4041 J-0.1456
X1.3898 Y1.6538 I-0.0027 J-0.0075
G1 X1.1046 Y1.5291
G3 X0.9711 Y1.3958 I0.1454 J-0.2791
X1.0197 Y1.3656 I0.0254 J-0.0133
G1 X1.0681 Y1.4321
X1.1178 Y1.5037
G3 X1.1225 Y1.5148 I-0.0236 J0.0164
G1 X1.1426 Y1.6219
G3 X1.1046 Y1.6542 I-0.0282 J0.0053
X0.846 Y1.3958 I0.1454 J-0.4042
X0.8462 Y1.3898 I0.0075 J-0.0027
G1 X0.971 Y1.1042
G3 X1.1047 Y0.9708 I0.279 J0.1458
X1.1084 Y0.9699 I0.0037 J0.0071
G1 X1.392 Y0.9701
G3 X1.3957 Y0.971 J0.008
X1.5292 Y1.1047 I-0.1457 J0.279
X1.5257 Y1.1155 I-0.0071 J0.0037
X1.515 Y1.112 I-0.0037 J-0.0071
G1 X1.3857 Y0.8571
G3 X1.3956 Y0.8459 I0.0071 J-0.0036
X1.654 Y1.1042 I-0.1456 J0.4041
X1.6465 Y1.1149 I-0.0075 J0.0027
G1 X0.8534 Y1.1153
G3 X0.8458 Y1.1046 J-0.008
X1.1044 Y0.8459 I0.4042 J0.1454
G2 X1.1636 Y0.7708 I-0.0306 J-0.085
G3 X1.2339 Y0.706 I0.0724 J0.008
X1.2661 Y1.794 I0.0161 J0.544
X1.2339 Y0.706 I-0.0161 J-0.544
G2 X1.3158 Y0.651 I-0.0027 J-0.0924
G3 X1.4042 Y0.6072 I0.0704 J0.0312
X1.0958 Y1.8928 I-0.1542 J0.6428
X1.4042 Y0.6072 I0.1542 J-0.6428
X1.4103 Y0.616 I-0.0019 J0.0078
G1 X1.3685 Y0.9509
G2 X1.3727 Y0.959 I0.0079 J0.001
G1 X1.3752 Y0.9603 Z0.1247
X1.3775 Y0.9615 Z0.1238
X1.3796 Y0.9626 Z0.1223
X1.3814 Y0.9635 Z0.1203
X1.3827 Y0.9642 Z0.1179
X1.3835 Y0.9646 Z0.1153
X1.3838 Y0.9648 Z0.1125
Z0.075
X1.3841 Y0.9649 Z0.0722
X1.3849 Y0.9654 Z0.0696
X1.3862 Y0.966 Z0.0672
X1.388 Y0.967 Z0.0652
X1.3901 Y0.9681 Z0.0637
X1.3924 Y0.9693 Z0.0628
X1.3949 Y0.9706 Z0.0625
X1.3957 Y0.971
G3 X1.5292 Y1.1047 I-0.1457 J0.279
X1.5301 Y1.1084 I-0.0071 J0.0037
G1 X1.53 Y1.3918
G3 X1.5291 Y1.3955 I-0.008
X1.3956 Y1.5291 I-0.2791 J-0.1455
X1.3654 Y1.4804 I-0.0133 J-0.0254
G1 X1.432 Y1.432
X1.5037 Y1.3822
G3 X1.5148 Y1.3776 I0.0164 J0.0236
G1 X1.6218 Y1.3576
G3 X1.6541 Y1.3956 I0.0053 J0.0282
X1.3958 Y1.654 I-0.4041 J-0.1456
X1.3898 Y1.6538 I-0.0027 J-0.0075
G1 X1.1046 Y1.5291
G3 X0.9711 Y1.3958 I0.1454 J-0.2791
X1.0197 Y1.3656 I0.0254 J-0.0133
G1 X1.0681 Y1.4321
X1.1178 Y1.5037
G3 X1.1225 Y1.5148 I-0.0236 J0.0164
G1 X1.1426 Y1.6219
G3 X1.1046 Y1.6542 I-0.0282 J0.0053
X0.846 Y1.3958 I0.1454 J-0.4042
X0.8462 Y1.3898 I0.0075 J-0.0027
G1 X0.971 Y1.1042
G3 X1.1047 Y0.9708 I0.279 J0.1458
X1.1156 Y0.9742 I0.0037 J0.0071
X1.1121 Y0.985 I-0.0071 J0.0037
G1 X0.857 Y1.1145
G3 X0.8458 Y1.1046 I-0.0036 J-0.0071
X1.1044 Y0.8459 I0.4042 J0.1454
X1.1071 Y0.8454 I0.0027 J0.0075
G1 X1.3928
G3 X1.3956 Y0.8459 J0.008
X1.654 Y1.1042 I-0.1456 J0.4041
G2 X1.7291 Y1.1634 I0.085 J-0.0307
G3 X1.794 Y1.2337 I-0.008 J0.0725
X0.706 Y1.2663 I-0.544 J0.0163
X1.794 Y1.2337 I0.544 J-0.0163
G2 X1.8491 Y1.3155 I0.0924 J-0.0028
G3 X1.8928 Y1.4039 I-0.0311 J0.0704
X0.6072 Y1.0961 I-0.6428 J-0.1539
X1.8928 Y1.4039 I0.6428 J0.1539
X1.8909 Y1.4082 Z0.0635 I-0.0122 J-0.0029
X1.888 Y1.4111 Z0.0662 I-0.0102 J-0.0072
X1.8857 Y1.4124 Z0.0702 I-0.0074 J-0.0101
X1.8848 Y1.4127 Z0.075 I-0.005 J-0.0115
G0 Z1.1

(2D Pocket7)
M9
X1.2708 Y1.1915
Z1.1
Z0.7
G1 Z0.6125 F40
G3 X1.2717 Y1.1919 Z0.6078 I-0.0259 J0.0534
X1.274 Y1.1932 Z0.6038 I-0.0267 J0.053
X1.2773 Y1.1952 Z0.6011 I-0.029 J0.0518
X1.2811 Y1.1979 Z0.6 I-0.0323 J0.0498
X1.2089 Y1.2921 Z0.5935 I-0.0361 J0.0471
X1.2811 Y1.1979 Z0.587 I0.0361 J-0.0471
X1.2089 Y1.2921 Z0.5805 I-0.0361 J0.0471
X1.2811 Y1.1979 Z0.5739 I0.0361 J-0.0471
X1.2089 Y1.2921 Z0.5674 I-0.0361 J0.0471
X1.2811 Y1.1979 Z0.5609 I0.0361 J-0.0471
X1.2089 Y1.2921 Z0.5544 I-0.0361 J0.0471
X1.2811 Y1.1979 Z0.5479 I0.0361 J-0.0471
X1.2089 Y1.2921 Z0.5414 I-0.0361 J0.0471
X1.2811 Y1.1979 Z0.5349 I0.0361 J-0.0471
X1.2089 Y1.2921 Z0.5283 I-0.0361 J0.0471
X1.2811 Y1.1979 Z0.5218 I0.0361 J-0.0471
X1.2089 Y1.2921 Z0.5153 I-0.0361 J0.0471
X1.2811 Y1.1979 Z0.5088 I0.0361 J-0.0471
X1.2089 Y1.2921 Z0.5023 I-0.0361 J0.0471
X1.2811 Y1.1979 Z0.4958 I0.0361 J-0.0471
X1.2089 Y1.2921 Z0.4893 I-0.0361 J0.0471
X1.2811 Y1.1979 Z0.4828 I0.0361 J-0.0471
X1.2089 Y1.2921 Z0.4762 I-0.0361 J0.0471
X1.2811 Y1.1979 Z0.4697 I0.0361 J-0.0471
X1.2089 Y1.2921 Z0.4632 I-0.0361 J0.0471
X1.2811 Y1.1979 Z0.4567 I0.0361 J-0.0471
X1.2089 Y1.2921 Z0.4502 I-0.0361 J0.0471
X1.2811 Y1.1979 Z0.4437 I0.0361 J-0.0471
X1.2089 Y1.2921 Z0.4372 I-0.0361 J0.0471
X1.2811 Y1.1979 Z0.4306 I0.0361 J-0.0471
X1.2089 Y1.2921 Z0.4241 I-0.0361 J0.0471
X1.2811 Y1.1979 Z0.4176 I0.0361 J-0.0471
X1.2089 Y1.2921 Z0.4111 I-0.0361 J0.0471
X1.2811 Y1.1979 Z0.4046 I0.0361 J-0.0471
X1.2089 Y1.2921 Z0.3981 I-0.0361 J0.0471
X1.2811 Y1.1979 Z0.3916 I0.0361 J-0.0471
X1.2089 Y1.2921 Z0.385 I-0.0361 J0.0471
X1.2811 Y1.1979 Z0.3785 I0.0361 J-0.0471
X1.287 Y1.287 Z0.375 I-0.0361 J0.0471
G2 X1.2569 Y1.3225 I0.1985 J0.1985
G3 X1.2431 I-0.0069 J-0.0049
G2 X1.1775 Y1.2569 I-0.2286 J0.163
G3 Y1.2431 I0.0049 J-0.0069
G2 X1.2431 Y1.1775 I-0.163 J-0.2286
G3 X1.2569 I0.0069 J0.0049
G2 X1.3225 Y1.2431 I0.2286 J-0.163
G3 Y1.2569 I-0.0049 J0.0069
G2 X1.287 Y1.287 I0.163 J0.2286
X1.2751 Y1.3727 I0.0507 J0.0507
G3 X1.2911 Y1.4578 I-0.1181 J0.0662
G2 X1.2892 Y1.485 I0.1939 J0.0272
X1.2901 Y1.5736 I4.3772 J-0.0001
G3 X1.291 Y1.6622 I-4.3627 J0.0886
X1.2783 Y1.675 I-0.0128
G1 X1.2218
G3 X1.209 Y1.6622 J-0.0128
X1.2099 Y1.5735 I4.3776
G2 X1.2108 Y1.4847 I-4.3767 J-0.0888
X1.015 Y1.2892 I-0.1955
X0.9264 Y1.2901 J4.3639
G3 X0.8378 Y1.291 I-0.0886 J-4.363
X0.825 Y1.2782 J-0.0128
G1 Y1.2218
G3 X0.8378 Y1.209 I0.0128
X0.9265 Y1.2099 J4.3776
G2 X1.0153 Y1.2108 I0.0888 J-4.3767
X1.2108 Y1.015 J-0.1955
X1.2099 Y0.9264 I-4.3641
G3 X1.209 Y0.8377 I4.3632 J-0.0886
X1.2218 Y0.825 I0.0128
G1 X1.2783
G3 X1.291 Y0.8377 J0.0128
X1.2901 Y0.9265 I-4.3778
G2 X1.2892 Y1.0153 I4.3769 J0.0888
X1.485 Y1.2108 I0.1955
X1.5736 Y1.2099 J-4.3641
G3 X1.6623 Y1.209 I0.0886 J4.3632
X1.675 Y1.2218 J0.0128
G1 Y1.2782
G3 X1.6623 Y1.291 I-0.0128
X1.5736 Y1.2901 J-4.3646
G2 X1.485 Y1.2892 I-0.0884 J4.3368
X1.2911 Y1.4578 J0.1958
X1.3383 Y1.5431 I0.0804 J0.0113
G3 X1.3913 Y1.625 I-0.0367 J0.0818
G1 Y1.744
G3 X1.36 Y1.7752 I-0.0313
G1 X1.14
G3 X1.1088 Y1.744 J-0.0312
G1 Y1.485
G2 X1.015 Y1.3912 I-0.0938
G1 X0.756
G3 X0.7248 Y1.36 J-0.0312
G1 Y1.14
G3 X0.756 Y1.1088 I0.0312
G1 X1.015
G2 X1.1088 Y1.015 J-0.0938
G1 Y0.756
G3 X1.14 Y0.7247 I0.0313
G1 X1.36
G3 X1.3913 Y0.756 J0.0313
G1 Y1.015
G2 X1.485 Y1.1088 I0.0938
G1 X1.744
G3 X1.7753 Y1.14 J0.0313
G1 Y1.36
G3 X1.744 Y1.3912 I-0.0313
G1 X1.485
G2 X1.3913 Y1.485 J0.0937
G1 Y1.625
G3 X1.38 Y1.6287 I-0.0062
G1 X1.3646 Y1.6078
X1.1987 Y1.2433
X1.1881 Y1.2369
G3 X1.1867 Y1.2338 I0.0014 J-0.0025
X1.3033 Y1.2561 Z0.3685 I0.0583 J0.0111
X1.1867 Y1.2338 Z0.362 I-0.0583 J-0.0111
X1.3033 Y1.2561 Z0.3555 I0.0583 J0.0111
X1.1867 Y1.2338 Z0.3489 I-0.0583 J-0.0111
X1.3033 Y1.2561 Z0.3424 I0.0583 J0.0111
X1.1867 Y1.2338 Z0.3359 I-0.0583 J-0.0111
X1.3033 Y1.2561 Z0.3294 I0.0583 J0.0111
X1.1867 Y1.2338 Z0.3229 I-0.0583 J-0.0111
X1.3033 Y1.2561 Z0.3164 I0.0583 J0.0111
X1.1867 Y1.2338 Z0.3099 I-0.0583 J-0.0111
X1.3033 Y1.2561 Z0.3033 I0.0583 J0.0111
X1.1867 Y1.2338 Z0.2968 I-0.0583 J-0.0111
X1.3033 Y1.2561 Z0.2903 I0.0583 J0.0111
X1.1867 Y1.2338 Z0.2838 I-0.0583 J-0.0111
X1.3033 Y1.2561 Z0.2773 I0.0583 J0.0111
X1.1867 Y1.2338 Z0.2708 I-0.0583 J-0.0111
X1.3033 Y1.2561 Z0.2643 I0.0583 J0.0111
X1.1867 Y1.2338 Z0.2578 I-0.0583 J-0.0111
X1.3033 Y1.2561 Z0.2512 I0.0583 J0.0111
X1.287 Y1.287 Z0.25 I-0.0583 J-0.0111
G2 X1.2569 Y1.3225 I0.1985 J0.1985
G3 X1.2431 I-0.0069 J-0.0049
G2 X1.1775 Y1.2569 I-0.2286 J0.163
G3 Y1.2431 I0.0049 J-0.0069
G2 X1.2431 Y1.1775 I-0.163 J-0.2286
G3 X1.2569 I0.0069 J0.0049
G2 X1.3225 Y1.2431 I0.2286 J-0.163
G3 Y1.2569 I-0.0049 J0.0069
G2 X1.287 Y1.287 I0.163 J0.2286
X1.2751 Y1.3727 I0.0507 J0.0507
G3 X1.2911 Y1.4578 I-0.1181 J0.0662
G2 X1.2892 Y1.485 I0.1939 J0.0272
X1.2901 Y1.5736 I4.3772 J-0.0001
G3 X1.291 Y1.6622 I-4.3627 J0.0886
X1.2783 Y1.675 I-0.0128
G1 X1.2218
G3 X1.209 Y1.6622 J-0.0128
X1.2099 Y1.5735 I4.3776
G2 X1.2108 Y1.4847 I-4.3767 J-0.0888
X1.015 Y1.2892 I-0.1955
X0.9264 Y1.2901 J4.3639
G3 X0.8378 Y1.291 I-0.0886 J-4.363
X0.825 Y1.2782 J-0.0128
G1 Y1.2218
G3 X0.8378 Y1.209 I0.0128
X0.9265 Y1.2099 J4.3776
G2 X1.0153 Y1.2108 I0.0888 J-4.3767
X1.2108 Y1.015 J-0.1955
X1.2099 Y0.9264 I-4.3641
G3 X1.209 Y0.8377 I4.3632 J-0.0886
X1.2218 Y0.825 I0.0128
G1 X1.2783
G3 X1.291 Y0.8377 J0.0128
X1.2901 Y0.9265 I-4.3778
G2 X1.2892 Y1.0153 I4.3769 J0.0888
X1.485 Y1.2108 I0.1955
X1.5736 Y1.2099 J-4.3641
G3 X1.6623 Y1.209 I0.0886 J4.3632
X1.675 Y1.2218 J0.0128
G1 Y1.2782
G3 X1.6623 Y1.291 I-0.0128
X1.5736 Y1.2901 J-4.3646
G2 X1.485 Y1.2892 I-0.0884 J4.3368
X1.2911 Y1.4578 J0.1958
X1.3383 Y1.5431 I0.0804 J0.0113
G3 X1.3913 Y1.625 I-0.0367 J0.0818
G1 Y1.744
G3 X1.36 Y1.7752 I-0.0313
G1 X1.14
G3 X1.1088 Y1.744 J-0.0312
G1 Y1.485
G2 X1.015 Y1.3912 I-0.0938
G1 X0.756
G3 X0.7248 Y1.36 J-0.0312
G1 Y1.14
G3 X0.756 Y1.1088 I0.0312
G1 X1.015
G2 X1.1088 Y1.015 J-0.0938
G1 Y0.756
G3 X1.14 Y0.7247 I0.0313
G1 X1.36
G3 X1.3913 Y0.756 J0.0313
G1 Y1.015
G2 X1.485 Y1.1088 I0.0938
G1 X1.744
G3 X1.7753 Y1.14 J0.0313
G1 Y1.36
G3 X1.744 Y1.3912 I-0.0313
G1 X1.485
G2 X1.3913 Y1.485 J0.0937
G1 Y1.625
G3 X1.38 Y1.6287 I-0.0062
G1 X1.3646 Y1.6078
X1.1987 Y1.2433
X1.1881 Y1.2369
G3 X1.1867 Y1.2338 I0.0014 J-0.0025
X1.3033 Y1.2561 Z0.2435 I0.0583 J0.0111
X1.1867 Y1.2338 Z0.237 I-0.0583 J-0.0111
X1.3033 Y1.2561 Z0.2305 I0.0583 J0.0111
X1.1867 Y1.2338 Z0.2239 I-0.0583 J-0.0111
X1.3033 Y1.2561 Z0.2174 I0.0583 J0.0111
X1.1867 Y1.2338 Z0.2109 I-0.0583 J-0.0111
X1.3033 Y1.2561 Z0.2044 I0.0583 J0.0111
X1.1867 Y1.2338 Z0.1979 I-0.0583 J-0.0111
X1.3033 Y1.2561 Z0.1914 I0.0583 J0.0111
X1.1867 Y1.2338 Z0.1849 I-0.0583 J-0.0111
X1.3033 Y1.2561 Z0.1783 I0.0583 J0.0111
X1.1867 Y1.2338 Z0.1718 I-0.0583 J-0.0111
X1.3033 Y1.2561 Z0.1653 I0.0583 J0.0111
X1.1867 Y1.2338 Z0.1588 I-0.0583 J-0.0111
X1.3033 Y1.2561 Z0.1523 I0.0583 J0.0111
X1.1867 Y1.2338 Z0.1458 I-0.0583 J-0.0111
X1.3033 Y1.2561 Z0.1393 I0.0583 J0.0111
X1.1867 Y1.2338 Z0.1328 I-0.0583 J-0.0111
X1.3033 Y1.2561 Z0.1262 I0.0583 J0.0111
X1.287 Y1.287 Z0.125 I-0.0583 J-0.0111
G2 X1.2569 Y1.3225 I0.1985 J0.1985
G3 X1.2431 I-0.0069 J-0.0049
G2 X1.1775 Y1.2569 I-0.2286 J0.163
G3 Y1.2431 I0.0049 J-0.0069
G2 X1.2431 Y1.1775 I-0.163 J-0.2286
G3 X1.2569 I0.0069 J0.0049
G2 X1.3225 Y1.2431 I0.2286 J-0.163
G3 Y1.2569 I-0.0049 J0.0069
G2 X1.287 Y1.287 I0.163 J0.2286
X1.2751 Y1.3727 I0.0507 J0.0507
G3 X1.2911 Y1.4578 I-0.1181 J0.0662
G2 X1.2892 Y1.485 I0.1939 J0.0272
X1.2901 Y1.5736 I4.3772 J-0.0001
G3 X1.291 Y1.6622 I-4.3627 J0.0886
X1.2783 Y1.675 I-0.0128
G1 X1.2218
G3 X1.209 Y1.6622 J-0.0128
X1.2099 Y1.5735 I4.3776
G2 X1.2108 Y1.4847 I-4.3767 J-0.0888
X1.015 Y1.2892 I-0.1955
X0.9264 Y1.2901 J4.3639
G3 X0.8378 Y1.291 I-0.0886 J-4.363
X0.825 Y1.2782 J-0.0128
G1 Y1.2218
G3 X0.8378 Y1.209 I0.0128
X0.9265 Y1.2099 J4.3776
G2 X1.0153 Y1.2108 I0.0888 J-4.3767
X1.2108 Y1.015 J-0.1955
X1.2099 Y0.9264 I-4.3641
G3 X1.209 Y0.8377 I4.3632 J-0.0886
X1.2218 Y0.825 I0.0128
G1 X1.2783
G3 X1.291 Y0.8377 J0.0128
X1.2901 Y0.9265 I-4.3778
G2 X1.2892 Y1.0153 I4.3769 J0.0888
X1.485 Y1.2108 I0.1955
X1.5736 Y1.2099 J-4.3641
G3 X1.6623 Y1.209 I0.0886 J4.3632
X1.675 Y1.2218 J0.0128
G1 Y1.2782
G3 X1.6623 Y1.291 I-0.0128
X1.5736 Y1.2901 J-4.3646
G2 X1.485 Y1.2892 I-0.0884 J4.3368
X1.2911 Y1.4578 J0.1958
X1.3383 Y1.5431 I0.0804 J0.0113
G3 X1.3913 Y1.625 I-0.0367 J0.0818
G1 Y1.744
G3 X1.36 Y1.7752 I-0.0313
G1 X1.14
G3 X1.1088 Y1.744 J-0.0312
G1 Y1.485
G2 X1.015 Y1.3912 I-0.0938
G1 X0.756
G3 X0.7248 Y1.36 J-0.0312
G1 Y1.14
G3 X0.756 Y1.1088 I0.0312
G1 X1.015
G2 X1.1088 Y1.015 J-0.0938
G1 Y0.756
G3 X1.14 Y0.7247 I0.0313
G1 X1.36
G3 X1.3913 Y0.756 J0.0313
G1 Y1.015
G2 X1.485 Y1.1088 I0.0938
G1 X1.744
G3 X1.7753 Y1.14 J0.0313
G1 Y1.36
G3 X1.744 Y1.3912 I-0.0313
G1 X1.485
G2 X1.3913 Y1.485 J0.0937
G1 Y1.625
G3 X1.38 Y1.6287 I-0.0062
G1 X1.3646 Y1.6078
X1.1987 Y1.2433
X1.1881 Y1.2369
G3 X1.1867 Y1.2338 I0.0014 J-0.0025
X1.3033 Y1.2561 Z0.1185 I0.0583 J0.0111
X1.1867 Y1.2338 Z0.112 I-0.0583 J-0.0111
X1.3033 Y1.2561 Z0.1055 I0.0583 J0.0111
X1.1867 Y1.2338 Z0.0989 I-0.0583 J-0.0111
X1.3033 Y1.2561 Z0.0924 I0.0583 J0.0111
X1.1867 Y1.2338 Z0.0859 I-0.0583 J-0.0111
X1.3033 Y1.2561 Z0.0794 I0.0583 J0.0111
X1.1867 Y1.2338 Z0.0729 I-0.0583 J-0.0111
X1.3033 Y1.2561 Z0.0664 I0.0583 J0.0111
X1.1867 Y1.2338 Z0.0599 I-0.0583 J-0.0111
X1.3033 Y1.2561 Z0.0533 I0.0583 J0.0111
X1.1867 Y1.2338 Z0.0468 I-0.0583 J-0.0111
X1.3033 Y1.2561 Z0.0403 I0.0583 J0.0111
X1.1867 Y1.2338 Z0.0338 I-0.0583 J-0.0111
X1.3033 Y1.2561 Z0.0273 I0.0583 J0.0111
X1.1867 Y1.2338 Z0.0208 I-0.0583 J-0.0111
X1.3033 Y1.2561 Z0.0143 I0.0583 J0.0111
X1.1867 Y1.2338 Z0.0078 I-0.0583 J-0.0111
X1.3033 Y1.2561 Z0.0012 I0.0583 J0.0111
X1.287 Y1.287 Z0 I-0.0583 J-0.0111
G2 X1.2569 Y1.3225 I0.1985 J0.1985
G3 X1.2431 I-0.0069 J-0.0049
G2 X1.1775 Y1.2569 I-0.2286 J0.163
G3 Y1.2431 I0.0049 J-0.0069
G2 X1.2431 Y1.1775 I-0.163 J-0.2286
G3 X1.2569 I0.0069 J0.0049
G2 X1.3225 Y1.2431 I0.2286 J-0.163
G3 Y1.2569 I-0.0049 J0.0069
G2 X1.287 Y1.287 I0.163 J0.2286
X1.2751 Y1.3727 I0.0507 J0.0507
G3 X1.2911 Y1.4578 I-0.1181 J0.0662
G2 X1.2892 Y1.485 I0.1939 J0.0272
X1.2901 Y1.5736 I4.3772 J-0.0001
G3 X1.291 Y1.6622 I-4.3627 J0.0886
X1.2783 Y1.675 I-0.0128
G1 X1.2218
G3 X1.209 Y1.6622 J-0.0128
X1.2099 Y1.5735 I4.3776
G2 X1.2108 Y1.4847 I-4.3767 J-0.0888
X1.015 Y1.2892 I-0.1955
X0.9264 Y1.2901 J4.3639
G3 X0.8378 Y1.291 I-0.0886 J-4.363
X0.825 Y1.2782 J-0.0128
G1 Y1.2218
G3 X0.8378 Y1.209 I0.0128
X0.9265 Y1.2099 J4.3776
G2 X1.0153 Y1.2108 I0.0888 J-4.3767
X1.2108 Y1.015 J-0.1955
X1.2099 Y0.9264 I-4.3641
G3 X1.209 Y0.8377 I4.3632 J-0.0886
X1.2218 Y0.825 I0.0128
G1 X1.2783
G3 X1.291 Y0.8377 J0.0128
X1.2901 Y0.9265 I-4.3778
G2 X1.2892 Y1.0153 I4.3769 J0.0888
X1.485 Y1.2108 I0.1955
X1.5736 Y1.2099 J-4.3641
G3 X1.6623 Y1.209 I0.0886 J4.3632
X1.675 Y1.2218 J0.0128
G1 Y1.2782
G3 X1.6623 Y1.291 I-0.0128
X1.5736 Y1.2901 J-4.3646
G2 X1.485 Y1.2892 I-0.0884 J4.3368
X1.2911 Y1.4578 J0.1958
X1.3383 Y1.5431 I0.0804 J0.0113
G3 X1.3913 Y1.625 I-0.0367 J0.0818
G1 Y1.744
G3 X1.36 Y1.7752 I-0.0313
G1 X1.14
G3 X1.1088 Y1.744 J-0.0312
G1 Y1.485
G2 X1.015 Y1.3912 I-0.0938
G1 X0.756
G3 X0.7248 Y1.36 J-0.0312
G1 Y1.14
G3 X0.756 Y1.1088 I0.0312
G1 X1.015
G2 X1.1088 Y1.015 J-0.0938
G1 Y0.756
G3 X1.14 Y0.7247 I0.0313
G1 X1.36
G3 X1.3913 Y0.756 J0.0313
G1 Y1.015
G2 X1.485 Y1.1088 I0.0938
G1 X1.744
G3 X1.7753 Y1.14 J0.0313
G1 Y1.36
G3 X1.744 Y1.3912 I-0.0313
G1 X1.485
G2 X1.3913 Y1.485 J0.0937
G1 Y1.625
G3 X1.3903 Y1.6296 Z0.001 I-0.0125
X1.3883 Y1.6331 Z0.0037 I-0.0116 J-0.0047
X1.3863 Y1.6349 Z0.0077 I-0.0095 J-0.0081
X1.3855 Y1.6355 Z0.0125 I-0.0075 J-0.01
G0 Z1.1

(2D Contour3)
M9
X1.2375 Y2.278
Z1.1
Z0.7
G1 Z0.6644 F40
Z0.3875
G19 G2 Y2.2655 Z0.375 J-0.0125
G1 Y2.253
G17 G3 X1.25 Y2.2405 I0.0125
G1 X2.053
G2 X2.2405 Y2.053 J-0.1875
G1 Y0.447
G2 X2.053 Y0.2595 I-0.1875
G1 X0.447
G2 X0.2595 Y0.447 J0.1875
G1 Y2.053
G2 X0.447 Y2.2405 I0.1875
G1 X1.25
G3 X1.2625 Y2.253 J0.0125
G1 Y2.2655
G19 G3 Y2.278 Z0.3875 K0.0125
G0 Z0.7
X1.2375
G1 Z0.5394 F40
Z0.2625
G2 Y2.2655 Z0.25 J-0.0125
G1 Y2.253
G17 G3 X1.25 Y2.2405 I0.0125
G1 X2.053
G2 X2.2405 Y2.053 J-0.1875
G1 Y0.447
G2 X2.053 Y0.2595 I-0.1875
G1 X0.447
G2 X0.2595 Y0.447 J0.1875
G1 Y2.053
G2 X0.447 Y2.2405 I0.1875
G1 X1.25
G3 X1.2625 Y2.253 J0.0125
G1 Y2.2655
G19 G3 Y2.278 Z0.2625 K0.0125
G0 Z0.7
X1.2375
G1 Z0.4144 F40
Z0.1375
G2 Y2.2655 Z0.125 J-0.0125
G1 Y2.253
G17 G3 X1.25 Y2.2405 I0.0125
G1 X2.053
G2 X2.2405 Y2.053 J-0.1875
G1 Y0.447
G2 X2.053 Y0.2595 I-0.1875
G1 X0.447
G2 X0.2595 Y0.447 J0.1875
G1 Y2.053
G2 X0.447 Y2.2405 I0.1875
G1 X1.25
G3 X1.2625 Y2.253 J0.0125
G1 Y2.2655
G19 G3 Y2.278 Z0.1375 K0.0125
G0 Z0.7
X1.2375
G1 Z0.2894 F40
Z0.0125
G2 Y2.2655 Z0 J-0.0125
G1 Y2.253
G17 G3 X1.25 Y2.2405 I0.0125
G1 X2.053
G2 X2.2405 Y2.053 J-0.1875
G1 Y0.447
G2 X2.053 Y0.2595 I-0.1875
G1 X0.447
G2 X0.2595 Y0.447 J0.1875
G1 Y2.053
G2 X0.447 Y2.2405 I0.1875
G1 X1.25
G3 X1.2625 Y2.253 J0.0125
G1 Y2.2655
G19 G3 Y2.278 Z0.0125 K0.0125
G0 Z1.1
G17
M9
G28 G91 Z0
G28 X0 Y0
M30
%
